src/icons/frame.svg

<?xml version="1.0" encoding="UTF-8" standalone="no"?><!DOCTYPE svg PUBLIC "-//W3C//DTD SVG 1.1//EN" "http://www.w3.org/Graphics/SVG/1.1/DTD/svg11.dtd"><svg width="100%" height="100%" viewBox="0 0 512 512" version="1.1" xmlns="http://www.w3.org/2000/svg" xmlns:xlink="http://www.w3.org/1999/xlink" xml:space="preserve" xmlns:serif="http://www.serif.com/" style="fill-rule:evenodd;clip-rule:evenodd;stroke-linejoin:round;stroke-miterlimit:2;"><g transform="matrix(0.350885,0,0,0.350885,77.201,74.9512)"><g id="frame"><path id="Rounded_Rectangle_8" d="M33.324,124.705l950.912,0c35.109,0 64,28.891 64,64l0,654.614c0,35.109 -28.891,64 -64,64l-950.912,0c-35.109,0 -64,-28.891 -64,-64l0,-654.614c0,-35.109 28.891,-64 64,-64Zm137.33,70.961l669.712,0c74.689,0 137.484,-11.46 137.484,62.519l0,493.471c0,73.975 -62.8,87.175 -137.484,87.175l-669.712,0c-74.688,0 -130.737,-13.2 -130.737,-87.175l0,-493.471c0,-73.979 56.049,-62.519 130.737,-62.519Zm-281.073,-213.311l1239.97,0c35.109,0 64,28.891 64,64l0,939.245c0,35.109 -28.891,64 -64,64l-1239.97,0c-35.109,0 -64,-28.891 -64,-64l0,-939.245c0,-35.109 28.891,-64 64,-64Zm203.851,69.976l833.1,0c98.331,0 193.791,-6.99 193.791,90.4l0,660.856c0,157.53 -39.24,176.35 -193.791,176.35l-833.1,0c-150.047,0 -196.033,-27.731 -196.033,-176.35l0,-660.852c0.001,-97.394 97.701,-90.404 196.033,-90.404Zm1049.3,-27.716c6.74,6.649 10.538,15.732 10.538,25.2c0,9.468 -3.798,18.551 -10.538,25.2l-112.18,111.1c-14.011,13.827 -36.863,13.827 -50.874,0c-6.742,-6.647 -10.541,-15.729 -10.541,-25.197c0,-9.468 3.799,-18.55 10.541,-25.197l112.164,-111.1c14.016,-13.827 36.869,-13.829 50.888,-0.005l0.002,-0.001Zm-1101.85,165.648c6.74,-6.649 10.538,-15.732 10.538,-25.2c0,-9.468 -3.798,-18.551 -10.538,-25.2l-112.168,-111.097c-14.015,-13.827 -36.867,-13.827 -50.882,0c-6.74,6.649 -10.538,15.732 -10.538,25.2c0,9.468 3.798,18.551 10.538,25.2l112.17,111.097c14.015,13.825 36.865,13.825 50.88,0Zm1101.85,817.387c6.74,-6.649 10.538,-15.732 10.538,-25.2c0,-9.468 -3.798,-18.551 -10.538,-25.2l-112.18,-111.1c-14.011,-13.827 -36.863,-13.827 -50.874,0c-6.742,6.648 -10.542,15.731 -10.542,25.2c0,9.469 3.8,18.552 10.542,25.2l112.164,111.1c14.016,13.83 36.874,13.83 50.89,0Zm-1101.85,-165.645c6.74,6.649 10.538,15.732 10.538,25.2c0,9.468 -3.798,18.551 -10.538,25.2l-112.168,111.095c-14.013,13.83 -36.869,13.83 -50.882,0c-6.739,-6.648 -10.537,-15.73 -10.537,-25.196c0,-9.466 3.798,-18.548 10.537,-25.196l112.17,-111.103c14.015,-13.825 36.865,-13.825 50.88,0Z" style="fill:#333;"/></g></g></svg>

<svg xmlns="http://www.w3.org/2000/svg" width="1024" height="1024" viewBox="0 0 1024 1024">
  <defs>
    <style>
      .cls-1 {
        fill-rule: evenodd;
      }
    </style>
  </defs>
  <path id="Rounded_Rectangle_8" data-name="Rounded Rectangle 8" class="cls-1" d="M33.324,124.705H984.236a64,64,0,0,1,64,64V843.319a64,64,0,0,1-64,64H33.324a64,64,0,0,1-64-64V188.705A64,64,0,0,1,33.324,124.705Zm137.33,70.961H840.366c74.689,0,137.484-11.46,137.484,62.519V751.656c0,73.975-62.8,87.175-137.484,87.175H170.654c-74.688,0-130.737-13.2-130.737-87.175V258.185C39.917,184.206,95.966,195.666,170.654,195.666ZM-110.419-17.645H1129.55a64,64,0,0,1,64,64V985.6a64,64,0,0,1-64,64H-110.419a64,64,0,0,1-64-64V46.355A64,64,0,0,1-110.419-17.645ZM93.432,52.331h833.1c98.331,0,193.791-6.99,193.791,90.4V803.587c0,157.53-39.24,176.35-193.791,176.35H93.432c-150.047,0-196.033-27.731-196.033-176.35V142.735C-102.6,45.341-4.9,52.331,93.432,52.331Zm1049.3-27.716a35.4,35.4,0,0,1,0,50.4l-112.18,111.1a36.214,36.214,0,0,1-50.874,0,35.385,35.385,0,0,1,0-50.394l112.164-111.1A36.234,36.234,0,0,1,1142.73,24.616ZM40.88,190.263a35.4,35.4,0,0,0,0-50.4L-71.288,28.766a36.224,36.224,0,0,0-50.882,0,35.4,35.4,0,0,0,0,50.4L-10,190.263A36.226,36.226,0,0,0,40.88,190.263ZM1142.73,1007.65a35.4,35.4,0,0,0,0-50.4l-112.18-111.1a36.214,36.214,0,0,0-50.874,0,35.39,35.39,0,0,0,0,50.4l112.164,111.1A36.228,36.228,0,0,0,1142.73,1007.65ZM40.88,842.005a35.4,35.4,0,0,1,0,50.4L-71.288,1003.5a36.218,36.218,0,0,1-50.882,0,35.392,35.392,0,0,1,0-50.392L-10,842.005A36.226,36.226,0,0,1,40.88,842.005Z"/>
</svg>
